paymentMethods/amex.svg

<svg width="128" height="64" viewBox="0 0 128 64" fill="none" xmlns="http://www.w3.org/2000/svg">
<rect width="128" height="64" rx="6" fill="#016FD0"/>
<path d="M25 55.1703V35.1703H46.2464L48.5259 38.1321L50.8808 35.1703H128V53.791C128 53.791 125.983 55.1503 123.651 55.1703H80.9482L78.3781 52.0176V55.1703H69.9562V49.7885C69.9562 49.7885 68.8058 50.5397 66.3186 50.5397H63.452V55.1703H50.7006L48.4243 52.1449L46.1131 55.1703H25Z" fill="white"/>
<path d="M0 19.9883L4.78632 8.82974H13.0638L15.7801 15.0803V8.82974H26.0697L27.6867 13.3475L29.2543 8.82974H75.4441V11.101C75.4441 11.101 77.8722 8.82974 81.8627 8.82974L96.8496 8.88212L99.519 15.0509V8.82974H108.13L110.5 12.3732V8.82974H119.19V28.8757H110.5L108.229 25.3208V28.8757H95.5773L94.3051 25.7158H90.904L89.6524 28.8757H81.0727C77.639 28.8757 75.4441 26.6509 75.4441 26.6509V28.8757H62.508L59.9405 25.7158V28.8757H11.8375L10.5661 25.7158H7.17586L5.91346 28.8757H0V19.9883Z" fill="white"/>
<path d="M6.48039 11.301L0.0246887 26.3108H4.22768L5.41884 23.3052H12.3436L13.5286 26.3108H17.8242L11.3746 11.301H6.48039ZM8.86887 14.7942L10.9796 20.0464H6.75195L8.86887 14.7942V14.7942Z" fill="#016FD0"/>
<path d="M18.2685 26.3083V11.2985L24.2412 11.3206L27.7151 20.998L31.1059 11.2985H37.0308V26.3083H33.2783V15.2484L29.3007 26.3083H26.0097L22.021 15.2484V26.3083H18.2685Z" fill="#016FD0"/>
<path d="M39.5983 26.3083V11.2985H51.8431V14.6559H43.3902V17.2234H51.6456V20.3834H43.3902V23.0496H51.8431V26.3083H39.5983Z" fill="#016FD0"/>
<path d="M54.0156 11.301V26.3108H57.768V20.9784H59.348L63.8473 26.3108H68.4329L63.4955 20.7809C65.5218 20.6099 67.6121 18.8707 67.6121 16.1706C67.6121 13.012 65.1329 11.301 62.366 11.301H54.0156V11.301ZM57.768 14.6584H62.0574C63.0864 14.6584 63.8349 15.4633 63.8349 16.2384C63.8349 17.2356 62.8651 17.8184 62.113 17.8184H57.768V14.6584V14.6584Z" fill="#016FD0"/>
<path d="M72.9753 26.3083H69.1439V11.2985H72.9753V26.3083Z" fill="#016FD0"/>
<path d="M82.0602 26.3083H81.2332C77.2317 26.3083 74.8022 23.1557 74.8022 18.8651C74.8022 14.4684 77.2045 11.2985 82.2577 11.2985H86.4052V14.8534H82.1061C80.0548 14.8534 78.604 16.4543 78.604 18.9021C78.604 21.8089 80.2629 23.0298 82.6527 23.0298H83.6402L82.0602 26.3083Z" fill="#016FD0"/>
<path d="M90.2255 11.301L83.7698 26.3108H87.9728L89.164 23.3052H96.0887L97.2737 26.3108H101.569L95.1197 11.301H90.2255ZM92.614 14.7942L94.7247 20.0464H90.4971L92.614 14.7942Z" fill="#016FD0"/>
<path d="M102.007 26.3083V11.2985H106.778L112.87 20.729V11.2985H116.622V26.3083H112.006L105.76 16.6309V26.3083H102.007Z" fill="#016FD0"/>
<path d="M27.3534 52.5755V37.5656H39.5983V40.9231H31.1454V43.4906H39.4008V46.6505H31.1454V49.3168H39.5983V52.5755H27.3534Z" fill="#016FD0"/>
<path d="M87.3531 52.5755V37.5656H99.598V40.9231H91.1451V43.4906H99.361V46.6505H91.1451V49.3168H99.598V52.5755H87.3531Z" fill="#016FD0"/>
<path d="M40.0735 52.5755L46.0354 45.1631L39.9315 37.5656H44.6591L48.2943 42.2624L51.9418 37.5656H56.4843L50.4606 45.0705L56.4336 52.5755H51.7067L48.1771 47.9528L44.7332 52.5755H40.0735Z" fill="#016FD0"/>
<path d="M56.8793 37.5681V52.578H60.7305V47.838H64.6804C68.0227 47.838 70.556 46.0649 70.556 42.6167C70.556 39.7602 68.5691 37.5681 65.168 37.5681H56.8793V37.5681ZM60.7305 40.9626H64.8903C65.97 40.9626 66.7418 41.6244 66.7418 42.6907C66.7418 43.6925 65.9739 44.4188 64.8779 44.4188H60.7305V40.9626Z" fill="#016FD0"/>
<path d="M72.1853 37.5656V52.5755H75.9378V47.243H77.5178L82.017 52.5755H86.6027L81.6652 47.0455C83.6916 46.8745 85.7818 45.1354 85.7818 42.4352C85.7818 39.2766 83.3027 37.5656 80.5358 37.5656H72.1853V37.5656ZM75.9378 40.9231H80.2272C81.2562 40.9231 82.0047 41.728 82.0047 42.5031C82.0047 43.5003 81.0348 44.0831 80.2827 44.0831H75.9378V40.9231V40.9231Z" fill="#016FD0"/>
<path d="M101.336 52.5755V49.3168H108.846C109.957 49.3168 110.438 48.7163 110.438 48.0577C110.438 47.4267 109.959 46.7888 108.846 46.7888H105.452C102.502 46.7888 100.86 44.9916 100.86 42.2933C100.86 39.8866 102.364 37.5656 106.747 37.5656H114.055L112.475 40.9428H106.155C104.947 40.9428 104.575 41.5768 104.575 42.1822C104.575 42.8044 105.035 43.4906 105.957 43.4906H109.512C112.801 43.4906 114.228 45.3558 114.228 47.7985C114.228 50.4246 112.638 52.5755 109.333 52.5755H101.336Z" fill="#016FD0"/>
<path d="M115.108 52.5755V49.3168H122.618C123.729 49.3168 124.211 48.7163 124.211 48.0577C124.211 47.4267 123.731 46.7888 122.618 46.7888H119.225C116.275 46.7888 114.632 44.9916 114.632 42.2933C114.632 39.8866 116.136 37.5656 120.52 37.5656H127.827L126.247 40.9428H119.927C118.719 40.9428 118.347 41.5768 118.347 42.1822C118.347 42.8044 118.807 43.4906 119.73 43.4906H123.285C126.573 43.4906 128 45.3558 128 47.7985C128 50.4246 126.41 52.5755 123.106 52.5755H115.108Z" fill="#016FD0"/>
</svg>

<svg xmlns="http://www.w3.org/2000/svg" width="128" height="64" fill="none"><rect width="128" height="64" fill="#016FD0" rx="6"/><path fill="#fff" d="M25 55.17v-20h21.246l2.28 2.962 2.355-2.962H128v18.621s-2.017 1.36-4.349 1.38H80.948l-2.57-3.153v3.152h-8.422v-5.382s-1.15.752-3.637.752h-2.867v4.63H50.701l-2.277-3.025-2.31 3.025H25ZM0 19.988 4.786 8.83h8.278l2.716 6.25V8.83h10.29l1.617 4.518 1.567-4.518h46.19V11.1s2.428-2.271 6.419-2.271l14.987.052 2.669 6.169V8.83h8.611l2.37 3.543V8.83h8.69v20.046h-8.69l-2.271-3.555v3.555H95.577l-1.272-3.16h-3.401l-1.252 3.16h-8.58c-3.433 0-5.628-2.225-5.628-2.225v2.225H62.508l-2.568-3.16v3.16H11.839l-1.272-3.16h-3.39l-1.263 3.16H0v-8.888Z"/><path fill="#016FD0" d="M6.48 11.301.025 26.311h4.203l1.19-3.006h6.926l1.185 3.006h4.295l-6.45-15.01H6.48Zm2.389 3.493 2.11 5.252H6.753l2.117-5.252ZM18.268 26.308v-15.01l5.973.023 3.474 9.677 3.39-9.7h5.926v15.01h-3.753v-11.06l-3.977 11.06H26.01l-3.989-11.06v11.06h-3.753ZM39.598 26.308v-15.01h12.245v3.358H43.39v2.567h8.256v3.16H43.39v2.667h8.453v3.258H39.598ZM54.016 11.301v15.01h3.752v-5.333h1.58l4.5 5.333h4.585l-4.938-5.53a4.571 4.571 0 0 0 4.117-4.61c0-3.159-2.48-4.87-5.246-4.87h-8.35Zm3.752 3.357h4.29c1.028 0 1.777.805 1.777 1.58 0 .998-.97 1.58-1.722 1.58h-4.345v-3.16ZM72.975 26.308h-3.831v-15.01h3.831v15.01ZM82.06 26.308h-.827c-4.001 0-6.43-3.152-6.43-7.443 0-4.397 2.401-7.566 7.455-7.566h4.147v3.554h-4.299c-2.051 0-3.502 1.601-3.502 4.05 0 2.906 1.659 4.127 4.049 4.127h.987l-1.58 3.278ZM90.225 11.301l-6.455 15.01h4.203l1.191-3.006h6.925l1.185 3.006h4.295l-6.45-15.01h-4.894Zm2.389 3.493 2.11 5.252h-4.227l2.117-5.252ZM102.007 26.308v-15.01h4.771l6.092 9.431v-9.43h3.752v15.01h-4.616l-6.246-9.678v9.677h-3.753ZM27.353 52.575v-15.01h12.245v3.358h-8.453v2.568h8.256v3.16h-8.256v2.666h8.453v3.258H27.353ZM87.353 52.575v-15.01h12.245v3.358h-8.453v2.568h8.216v3.16h-8.216v2.666h8.453v3.258H87.353ZM40.074 52.575l5.961-7.412-6.103-7.597h4.727l3.635 4.696 3.648-4.696h4.542l-6.023 7.505 5.973 7.505h-4.727l-3.53-4.623-3.444 4.622h-4.66ZM56.88 37.568v15.01h3.85v-4.74h3.95c3.343 0 5.876-1.773 5.876-5.221 0-2.857-1.987-5.049-5.388-5.049h-8.289Zm3.85 3.395h4.16c1.08 0 1.852.661 1.852 1.728 0 1.002-.768 1.728-1.864 1.728H60.73v-3.456ZM72.185 37.566v15.01h3.753v-5.333h1.58l4.499 5.332h4.586l-4.938-5.53a4.571 4.571 0 0 0 4.117-4.61c0-3.158-2.48-4.87-5.246-4.87h-8.35Zm3.753 3.357h4.29c1.028 0 1.777.805 1.777 1.58 0 .997-.97 1.58-1.722 1.58h-4.345v-3.16ZM101.336 52.575v-3.258h7.51c1.111 0 1.592-.6 1.592-1.26 0-.63-.479-1.268-1.592-1.268h-3.394c-2.95 0-4.592-1.797-4.592-4.496 0-2.406 1.504-4.727 5.887-4.727h7.308l-1.58 3.377h-6.32c-1.208 0-1.58.634-1.58 1.24 0 .621.46 1.308 1.382 1.308h3.555c3.289 0 4.716 1.865 4.716 4.307 0 2.627-1.59 4.777-4.895 4.777h-7.997ZM115.108 52.575v-3.258h7.51c1.111 0 1.593-.6 1.593-1.26 0-.63-.48-1.268-1.593-1.268h-3.393c-2.95 0-4.593-1.797-4.593-4.496 0-2.406 1.504-4.727 5.888-4.727h7.307l-1.58 3.377h-6.32c-1.208 0-1.58.634-1.58 1.24 0 .621.46 1.308 1.383 1.308h3.555c3.288 0 4.715 1.865 4.715 4.307 0 2.627-1.59 4.777-4.894 4.777h-7.998Z"/></svg>
